X: 40393
T: Tom Keane's
R: reel
M: 4/4
K: Dmajor
|:edcA ABcd|edcA AFG2|edcA ABcd|edcA BGA2:|
|:agea age2|edcd efg2|fgea age2|edcA BGA2:|

